X: 1
T: Lady Mary Hay's Scotch Measure
M: 4/4
L: 1/8
K: Dm
F>E \
| "Dm"D2D2 A3F | D2A2 defg | agfd ecdB | "C"c2C2 C2F>E \
| "Dm"D2D2 A3F | D2A2 defg |
| agfd "A7"eaA^c | "Dm"d2D2 D2 :| f>e \
| "Dm"d2d2 d3A \
| d^cde fefd \
| "C"efga gfed \
| e2c2 c2f>e |
| "Bb"d2d2 d3e \
| d^cde fefd \
| "Gm"efgb "A7"afge \
| "Dm"f2d2 d2f>e \
| "Dm"d2D2 d3e \
| fefg agfd |
| "C"efge c'gaf \
| e2c2 "A7"c2a>g \
| "Dm"fgag fefd \
| "C"efgf "A7"ede^c \
| "Dm"dBAG "A7"FdE^c \
| "Dm"d2D2 D2|]
